!!!OTL: SCHREIB DU AN JENEM ORTE
!!!ARE: Europa, Mitteleuropa, Deutschland, Niederrhein, Meurs
!!!SCT: E0735
!!!YEM: Copyright 1995, estate of Helmut Schaffrath.
**kern
*ICvox
*Ivox
*M2/4
*k[b-]
*F:
{8f
=1
8e
8g
8g
8g
=2
8.g
16a
8b-}
{8cc
=3
8.a
16g
8a
8g
=4
8.a
16b-
8cc}
{8c
=5
4f
8f
8f
=6
4dd
8cc}
{8b-
=7
4a
8.cc
16g
=8
4g
8f}
==
!!!AGN: Liebes - Lied, Leid, Klage, Tod
!!!ONB: ESAC (Essen Associative Code) Database: ERK2
!!!AMT: simple duple
!!!AIN: vox
!!!EED: Helmut Schaffrath
!!!EEV: 1.0
*-
